X: 1
T: the High Drive (4 parts)
C: Gordon Duncan
R: reel
Z: 2007 John Chambers <jc:trillian.mit.edu>
S: Page from Concord Slow Scottish Session collection
N: Parts C,D from Duncan book and Beaton "Tap Sessions"
M: C|
L: 1/8
K: D
"A"[|] A2 |:\
"D"d3e fedA | "G"~B2gB BAGB | "D"GA~A2 "Bm"fedf |\
[1,3 "A7"eA~A2 afge :|[2,4 "A7"edce "D"d2 "B":| fg |\
"D"a3g ad~d2 |
"G"AB~B2 gBdB | "D"GA~A2 "Bm"fedf | "A7"eA ~A2 efge |\
"D"a3g ad~d2 | "G"AB~B2 gBdB | "D"GA~A2 "Bm"fedf |
"A7"edce "D"defg ||\
"D"a3g ad~d2 | "G"AB~B2 gBdB | "D"GA~A2 "Bm"fedf | "A7"eA~A2 afge |\
"D"d3e fedA  |
"G"~B2gB BAGB | "D"GA~A2 "Bm"fedf | "A7"edce "D"d2y2 \
"C"|: fe |\
"D"dAeA fA~A2 | "G"gBBA Bgag | "D"fA~A2 "Bm"afdf | "A7"eA~A2 afge |
"D"dAeA fA~A2 | "G"gBBA Bgag | "D"fA~A2 "Bm"afdf | "A7"edce "D"d2 \
"D":: fg | "D"adda ddad | "G"gddg ddgd |
"D"fddf ddfd | "Em"edde "A7"dded |\
"D"adda ddad | "G"gddg ddgd | "D"fA~A2 "Bm"afdf | "A7"edce "D"d2 :|
